X: 53
M:2/4
L:1/16
K:D
uD2|\
|:vef|\
afdf gece | fdAd "4"e2(dc) | dDEF GABc | defg .e2(fg) |
afge fd"4"ec | dABG AFGE | FDED A,DFD | EDCE D2 :|


